icons/switch.svg

<svg xmlns="http://www.w3.org/2000/svg" viewBox="0 0 24 24" fill="currentColor">
  <path d="M3.75 12c0-2.38579 1.86421-4.25 4.25-4.25h8c2.3858 0 4.25 1.86421 4.25 4.25 0 2.3858-1.8642 4.25-4.25 4.25H8c-2.37607 0-4.25-1.9544-4.25-4.25ZM8 6.25c-3.21421 0-5.75 2.53579-5.75 5.75 0 3.1044 2.52607 5.75 5.75 5.75h8c3.2142 0 5.75-2.5358 5.75-5.75 0-3.21421-2.5358-5.75-5.75-5.75H8ZM6.75 12c0-.6904.55964-1.25 1.25-1.25s1.25.5596 1.25 1.25-.55964 1.25-1.25 1.25-1.25-.5596-1.25-1.25ZM8 9.25c-1.51878 0-2.75 1.2312-2.75 2.75S6.48122 14.75 8 14.75s2.75-1.2312 2.75-2.75S9.51878 9.25 8 9.25Z"/>
</svg>

<svg width="24" height="24" viewBox="0 0 24 24" fill="none" xmlns="http://www.w3.org/2000/svg">
<path fill-rule="evenodd" clip-rule="evenodd" d="M3.75 12C3.75 9.61421 5.61421 7.75 8 7.75H16C18.3858 7.75 20.25 9.61421 20.25 12C20.25 14.3858 18.3858 16.25 16 16.25H8C5.62393 16.25 3.75 14.2956 3.75 12ZM8 6.25C4.78579 6.25 2.25 8.78579 2.25 12C2.25 15.1044 4.77607 17.75 8 17.75H16C19.2142 17.75 21.75 15.2142 21.75 12C21.75 8.78579 19.2142 6.25 16 6.25H8ZM6.75 12C6.75 11.3096 7.30964 10.75 8 10.75C8.69036 10.75 9.25 11.3096 9.25 12C9.25 12.6904 8.69036 13.25 8 13.25C7.30964 13.25 6.75 12.6904 6.75 12ZM8 9.25C6.48122 9.25 5.25 10.4812 5.25 12C5.25 13.5188 6.48122 14.75 8 14.75C9.51878 14.75 10.75 13.5188 10.75 12C10.75 10.4812 9.51878 9.25 8 9.25Z" fill="black"/>
</svg>
